X: 25599
T: Marquis Of Huntley, The
R: strathspey
M: 4/4
K: Dminor
|:A<dd>c A<dd>e|C>D E>A G/F/E/D/ C3z|
A<d d>c A<d d>F|1 E<G c>E D2 D2:|2 E<G c>E D2 D>g||
K:Dmix
f<d d>e c>d e>g|f<d d>g f>d f<a|
f<d d>e c>d e>g|(3fed (3edc d2 d>g|
f<d d>e c>d e>g|f<d d>g f>d f<a|
c(3d/c/B/ c>G E>C E>G|(3AGF (3GFE D2 D2||

